assets/icons/twitter.svg

<svg width="24" height="24" viewBox="0 0 24 24" fill="none" xmlns="http://www.w3.org/2000/svg">
<path d="M19.633 7.99704C19.646 8.17204 19.646 8.34604 19.646 8.52004C19.646 13.845 15.593 19.981 8.186 19.981C5.904 19.981 3.784 19.32 2 18.172C2.324 18.209 2.636 18.222 2.973 18.222C4.78599 18.2264 6.54765 17.6202 7.974 16.501C7.13342 16.4858 6.31858 16.2085 5.64324 15.7078C4.9679 15.2071 4.46578 14.5079 4.207 13.708C4.456 13.745 4.706 13.77 4.968 13.77C5.329 13.77 5.692 13.72 6.029 13.633C5.11676 13.4489 4.29647 12.9544 3.70762 12.2337C3.11876 11.5131 2.79769 10.6107 2.799 9.68004V9.63004C3.336 9.92904 3.959 10.116 4.619 10.141C4.06609 9.77363 3.61272 9.27507 3.29934 8.68983C2.98596 8.1046 2.82231 7.4509 2.823 6.78704C2.823 6.03904 3.022 5.35304 3.371 4.75504C4.38314 6.00006 5.6455 7.0186 7.07634 7.7447C8.50717 8.4708 10.0746 8.88826 11.677 8.97004C11.615 8.67004 11.577 8.35904 11.577 8.04704C11.5767 7.518 11.6807 6.9941 11.8831 6.50528C12.0854 6.01647 12.3821 5.57232 12.7562 5.19823C13.1303 4.82414 13.5744 4.52745 14.0632 4.32512C14.5521 4.12279 15.076 4.01878 15.605 4.01904C16.765 4.01904 17.812 4.50504 18.548 5.29104C19.4498 5.11666 20.3145 4.78747 21.104 4.31804C20.8034 5.24886 20.1738 6.03815 19.333 6.53804C20.1328 6.44682 20.9144 6.2365 21.652 5.91404C21.1011 6.71714 20.4185 7.42139 19.633 7.99704Z" fill="#FFCB8F"/>
</svg>

<svg width="24" height="24" fill="none" xmlns="http://www.w3.org/2000/svg"><path d="M19.633 7.997c.013.175.013.349.013.523 0 5.325-4.053 11.461-11.46 11.461-2.282 0-4.402-.661-6.186-1.809.324.037.636.05.973.05a8.07 8.07 0 0 0 5.001-1.721 4.036 4.036 0 0 1-3.767-2.793c.249.037.499.062.761.062.361 0 .724-.05 1.061-.137a4.026 4.026 0 0 1-3.23-3.953v-.05c.537.299 1.16.486 1.82.511a4.021 4.021 0 0 1-1.796-3.354c0-.748.199-1.434.548-2.032a11.457 11.457 0 0 0 8.306 4.215c-.062-.3-.1-.611-.1-.923a4.024 4.024 0 0 1 4.028-4.028c1.16 0 2.207.486 2.943 1.272a7.957 7.957 0 0 0 2.556-.973c-.3.93-.93 1.72-1.771 2.22a8.073 8.073 0 0 0 2.319-.624 8.646 8.646 0 0 1-2.019 2.083z" fill="#FFCB8F"/></svg>
